!!!CDT:
!!!PTL: L'Armida del Tasso posta in musica a cinque voci, col suo basso per suonare
!!!PPP: Venice
!!!PPR: Alessandro Vincenti
!!!PDT: 1629
!!!PUB-format:
!!!RISM: E 741
!!!AGN: Madrigal
!!!SCT: Tsg16063c
!!!SCA: Tsg16063c
!!!original-voices: 5+bc
!!!extant-voices: 5+bc
!!!complete: Y
!!!final: (G)G
!!!COM: Eredi, Francesco
!!!OTL:	Poi ch'ella in sé tornò, deserto e muto
**kern	**fb	**kern	**text	**kern	**text	**kern	**text	**kern	**text	**kern	**text
*part6	*part6	*part5	*part5	*part4	*part4	*part3	*part3	*part2	*part2	*part1	*part1
*staff6	*staff6	*staff5	*staff5	*staff4	*staff4	*staff3	*staff3	*staff2	*staff2	*staff1	*staff1
*I"Basso continuo	*	*I"Basso	*	*I"Tenore	*	*I"Quinto	*	*I"Alto	*	*I"Canto	*
*I'Bc	*	*I'B	*	*I'T	*	*I'V	*	*I'A	*	*I'C	*
*oclefF4	*	*oclefF4	*	*oclefC4	*	*oclefC4	*	*oclefC3	*	*oclefC1	*
*clefF4	*	*clefF4	*	*clefGv2	*	*clefGv2	*	*clefGv2	*	*clefG2	*
*k[b-]	*	*k[b-]	*	*k[b-]	*	*k[b-]	*	*k[b-]	*	*k[b-]	*
*F:	*	*F:	*	*F:	*	*F:	*	*F:	*	*F:	*
*omet(C)	*	*omet(C)	*	*omet(C)	*	*omet(C)	*	*omet(C)	*	*omet(C)	*
*M4/4	*	*M4/4	*	*M4/4	*	*M4/4	*	*M4/4	*	*M4/4	*
=1	=1	=1	=1	=1	=1	=1	=1	=1	=1	=1	=1
!!LO:TX:a:t=Sesta parte
2.G	.	2r	.	4r	.	2r	.	2r	.	2r	.
.	.	.	.	4d	Poi	.	.	.	.	.	.
.	.	4r	.	8G	ch’el-	4r	.	4r	.	4r	.
.	.	.	.	8G	-la in	.	.	.	.	.	.
4G	.	4G	Poi	8G	sé	4BnX	Poi	4d	Poi	4g	Poi
.	.	.	.	8G	tor-	.	.	.	.	.	.
=2	=2	=2	=2	=2	=2	=2	=2	=2	=2	=2	=2
4C	.	8C	ch’el-	4c	-nò,	8c	ch’el-	8e	ch’el-	8g	ch’el-
.	.	8C	-la in	.	.	8c	-la in	8e	-la in	8g	-la in
8CL	.	8C	sé	8r	.	8c	se	8e	sé	8g	sé
8FJ	.	8F	tor-	8F	de-	8c	tor-	8f	tor-	8a	tor-
4.BB-y	.	4BB-y	-nò,	[2F	-ser-	4d	-nò,	4f	-nò,	4b-y	-nò,
.	.	8r	.	.	.	8r	.	8r	.	8r	.
8BB-y	.	8BB-y	de-	.	.	8D	de-	8d	de-	8f	de-
=3	=3	=3	=3	=3	=3	=3	=3	=3	=3	=3	=3
4BB-y	.	4BB-y	-ser-	4F]	.	4D	-ser-	4B-y	-ser-	4d	-ser-
4GG	6	4GG	-to e	4G	-to e	4B-y	-to e	4B-y	-to e	4e	-to e
[2FF	.	[2FF	mu-	[2C	mu-	[2A	mu-	[2c	mu-	[2f	mu-
=4	=4	=4	=4	=4	=4	=4	=4	=4	=4	=4	=4
4FF]	.	4FF]	.	4C]	.	4A]	.	4c]	.	4f]	.
4FF	.	4FF	-to	4F	-to	4A	-to	4c	-to	4f	-to
2r	.	2r	.	2r	.	4r	.	2r	.	2r	.
.	.	.	.	.	.	[4c	Quan-	.	.	.	.
=5	=5	=5	=5	=5	=5	=5	=5	=5	=5	=5	=5
2F	.	2F	Quan-	2A	Quan-	4c]	.	1r	.	1r	.
.	.	.	.	.	.	8c	-to	.	.	.	.
.	.	.	.	.	.	8c	mi-	.	.	.	.
8FL	.	8F	-to	8A	-to	8c	-rar	.	.	.	.
8FJ	.	8F	mi-	8A	mi-	8c	po-	.	.	.	.
8FL	6	8F	-rar	8A	-rar	4d	-té	.	.	.	.
8FJ	.	8F	po-	8A	po-	.	.	.	.	.	.
=6	=6	=6	=6	=6	=6	=6	=6	=6	=6	=6	=6
4G	.	4G	-té	2B-y	-té	4d	d’in-	1r	.	1r	.
4GG	.	4GG	d’in-	.	.	8GL	-tor-	.	.	.	.
.	.	.	.	.	.	8AJ	.	.	.	.	.
2GG	.	8GGL	-tor-	4D	d’in-	8B-yL	.	.	.	.	.
.	.	8AAJ	.	.	.	8cJ	.	.	.	.	.
.	.	8BB-yL	.	8DL	-tor-	4d	.	.	.	.	.
.	.	8CJ	.	8EJ	.	.	.	.	.	.	.
=7	=7	=7	=7	=7	=7	=7	=7	=7	=7	=7	=7
8DL	.	8DL	.	8FL	.	4A	-no,	1r	.	1r	.
8EJ	.	8EJ	.	8GJ	.	.	.	.	.	.	.
8FL	.	8FL	.	8AL	.	4f	d’in-	.	.	.	.
8GJ	.	8GJ	.	8B-yJ	.	.	.	.	.	.	.
8AL	.	8AL	.	8cL	.	8eL	-tor-	.	.	.	.
8FJ	.	8FJ	.	8AJ	.	8fJ	.	.	.	.	.
8GL	.	8GL	.	8B-yL	.	8dL	.	.	.	.	.
8AJ	.	8AJ	.	8cJ	.	8cJ	.	.	.	.	.
=8	=8	=8	=8	=8	=8	=8	=8	=8	=8	=8	=8
8B-yL	.	8B-yL	.	8.dL	.	8.B-yL	.	1r	.	1r	.
8BB-yJ	.	8BB-yJ	.	.	.	.	.	.	.	.	.
.	.	.	.	16eJ	.	16AJ	.	.	.	.	.
8DL	.	8DL	.	2f	.	8FL	.	.	.	.	.
8EJ	.	8EJ	.	.	.	8GJ	.	.	.	.	.
8FL	.	8FL	.	.	.	8AL	.	.	.	.	.
8DJ	6	8DJ	.	.	.	8B-yJ	.	.	.	.	.
8EL	.	8EL	.	4e	.	8GL	.	.	.	.	.
8FJ	.	8FJ	.	.	.	8AJ	.	.	.	.	.
=9	=9	=9	=9	=9	=9	=9	=9	=9	=9	=9	=9
2.G	.	2.G	.	8dL	.	8B-yL	.	1r	.	1r	.
.	.	.	.	8cJ	.	8cJ	.	.	.	.	.
.	.	.	.	8B-yL	.	2d	.	.	.	.	.
.	.	.	.	8AJ	.	.	.	.	.	.	.
.	.	.	.	4G	.	.	.	.	.	.	.
4E-X	.	4E-X	-no	4G	-no	4G	-no	.	.	.	.
=10	=10	=10	=10	=10	=10	=10	=10	=10	=10	=10	=10
2D	#	2D	scor-	2F#X	scor-	2A	scor-	1r	.	1r	.
2D	.	2D	-se.	2F#i	-se.	2A	-se.	.	.	.	.
=11	=11	=11	=11	=11	=11	=11	=11	=11	=11	=11	=11
4r	.	1r	.	1r	.	1r	.	1r	.	4r	.
2D	.	.	.	.	.	.	.	.	.	4.a	«I-
.	.	.	.	.	.	.	.	.	.	8a	-to
4G	.	.	.	.	.	.	.	.	.	4b-y	se
=12	=12	=12	=12	=12	=12	=12	=12	=12	=12	=12	=12
4F	.	2r	.	2r	.	2r	.	2r	.	4cc	n’è
4B-y	.	.	.	.	.	.	.	.	.	4dd	pur,
4G	.	4G	Dis-	4B-y	Dis-	4d	Dis-	4g	Dis-	2r	.
4G	.	4G	-se,	4B-y	-se,	4d	-se,	4g	-se,	.	.
=13	=13	=13	=13	=13	=13	=13	=13	=13	=13	=13	=13
4G	.	1r	.	1r	.	1r	.	1r	.	4r	.
4.G	.	.	.	.	.	.	.	.	.	4.b-y	<I-
8F	.	.	.	.	.	.	.	.	.	8a	-to
4A	.	.	.	.	.	.	.	.	.	4cc	se
=14	=14	=14	=14	=14	=14	=14	=14	=14	=14	=14	=14
4G	.	2r	.	2r	.	2r	.	2r	.	4b-y	n’è
4F	.	.	.	.	.	.	.	.	.	4a	pur>
4F	.	4F	Dis-	4A	Dis-	4c	Dis-	4f	Dis-	2r	.
4F	.	4F	-se:	4A	-se:	4c	-se:	4f	-se:	.	.
=15	=15	=15	=15	=15	=15	=15	=15	=15	=15	=15	=15
4.D	.	1r	.	1r	.	1r	.	1r	.	8r	.
.	.	.	.	.	.	.	.	.	.	8a	et
.	.	.	.	.	.	.	.	.	.	8b-y	ha
8C	.	.	.	.	.	.	.	.	.	8cc	po-
2BB-y	.	.	.	.	.	.	.	.	.	4dd	-tu-
.	.	.	.	.	.	.	.	.	.	4dd	-to
=16	=16	=16	=16	=16	=16	=16	=16	=16	=16	=16	=16
2C	-	1r	.	1r	.	1r	.	1r	.	8r	.
.	.	.	.	.	.	.	.	.	.	8cc	Me
.	.	.	.	.	.	.	.	.	.	4ee-X	qui,
2F	.	.	.	.	.	.	.	.	.	4r	.
.	.	.	.	.	.	.	.	.	.	8.cc	qui
.	.	.	.	.	.	.	.	.	.	16dd	la-
=17	=17	=17	=17	=17	=17	=17	=17	=17	=17	=17	=17
2BB-y	.	1r	.	1r	.	1r	.	1r	.	2b-y	-sciar
2E-X	.	.	.	.	.	.	.	.	.	8r	.
.	.	.	.	.	.	.	.	.	.	8g	de
.	.	.	.	.	.	.	.	.	.	8a	la
.	.	.	.	.	.	.	.	.	.	8b-y	mia
=18	=18	=18	=18	=18	=18	=18	=18	=18	=18	=18	=18
2.C	.	1r	.	1r	.	1r	.	1r	.	2.cc	vi-
4BBnX	.	.	.	.	.	.	.	.	.	4dd	-ta in
=19	=19	=19	=19	=19	=19	=19	=19	=19	=19	=19	=19
2D	.	1r	.	1r	.	1r	.	1r	.	2a	for-
2GG	.	.	.	.	.	.	.	.	.	4g	-se?
.	.	.	.	.	.	.	.	.	.	8g	Né un
.	.	.	.	.	.	.	.	.	.	8g	mo-
=20	=20	=20	=20	=20	=20	=20	=20	=20	=20	=20	=20
2C	.	4r	.	4r	.	4r	.	4r	.	4g	-men-
.	.	8C	Né un	8G	Né un	8c	Né un	8e	Né un	8g	-to in-
.	.	8C	mo-	8G	mo-	8c	mo-	8e	mo-	8g	-du-
4C	.	4C	-men-	4G	-men-	4c	-men-	4e	-men-	2cc	-giò,
8CL	.	8C	-to in-	8G	-to in-	8c	-to in-	8e	-to in-	.	.
8CJ	.	8C	-du-	8G	-du-	8c	-du-	8e	-du-	.	.
=21	=21	=21	=21	=21	=21	=21	=21	=21	=21	=21	=21
2F	.	2F	-giò,	2A	-giò,	2c	-giò,	2f	-giò,	8r	.
.	.	.	.	.	.	.	.	.	.	8a	né un
.	.	.	.	.	.	.	.	.	.	8a	bre-
.	.	.	.	.	.	.	.	.	.	8a	-ve a-
8r	.	8r	.	8r	.	8r	.	8r	.	4dd	-iu-
8D	.	8D	né un	8A	né un	8d	né un	8f#X	né un	.	.
8DL	.	8D	bre-	8A	bre-	8d	bre-	8f#X	bre-	4dd	-to
8DJ	.	8D	-ve a-	8A	-ve a-	8d	-ve a-	8f#X	-ve a-	.	.
=22	=22	=22	=22	=22	=22	=22	=22	=22	=22	=22	=22
4G	#	4G	-iu-	4BnXi	-iu-	4d	-iu-	4g	-iu-	8r	.
.	.	.	.	.	.	.	.	.	.	8bnX	Nel
4G	.	4G	-to	4BnX	-to	4d	-to	4g	-to	8bnX	ca-
.	.	.	.	.	.	.	.	.	.	8bnXi	-so e-
2C	.	2r	.	2r	.	2r	.	2r	.	2cc	-stre-
=23	=23	=23	=23	=23	=23	=23	=23	=23	=23	=23	=23
2F	.	1r	.	1r	.	1r	.	1r	.	8cc	-mo
.	.	.	.	.	.	.	.	.	.	8a	il
.	.	.	.	.	.	.	.	.	.	8b-y	tra-
.	.	.	.	.	.	.	.	.	.	8cc	-di-
2BB-y	.	.	.	.	.	.	.	.	.	[2dd	-tor
=24	=24	=24	=24	=24	=24	=24	=24	=24	=24	=24	=24
2D	#	1r	.	1r	.	2r	.	1r	.	4dd]	.
.	.	.	.	.	.	.	.	.	.	4f#X	mi
2GG	.	.	.	.	.	8r	.	.	.	4g	por-
.	.	.	.	.	.	8G	Nel	.	.	.	.
.	.	.	.	.	.	8G	ca-	.	.	4g	-se?
.	.	.	.	.	.	8G	-so e-	.	.	.	.
=25	=25	=25	=25	=25	=25	=25	=25	=25	=25	=25	=25
2C	.	8r	.	8r	.	4c	-stre-	8r	.	1r	.
.	.	8C	Nel	8G	Nel	.	.	8e	Nel	.	.
.	.	8C	ca-	8G	ca-	4c	-mo,	8e	ca-	.	.
.	.	8C	-so e-	8G	-so e-	.	.	8e	-so e-	.	.
2F	.	2F	-stre-	2A	-stre-	8r	.	2f	-stre-	.	.
.	.	.	.	.	.	8c	<Nel	.	.	.	.
.	.	.	.	.	.	8c	ca-	.	.	.	.
.	.	.	.	.	.	8c	-so e-	.	.	.	.
=26	=26	=26	=26	=26	=26	=26	=26	=26	=26	=26	=26
2.BB-y	.	2BB-y	-mo	2B-y	-mo	2d	-stre-	2f	-mo	1r	.
.	.	2r	.	8r	.	8d	-mo>	2r	.	.	.
.	.	.	.	8d	il	8f	il	.	.	.	.
4C	-	.	.	8c	tra-	8e-X	tra-	.	.	.	.
.	.	.	.	8B-y	-di-	8d	-di-	.	.	.	.
=27	=27	=27	=27	=27	=27	=27	=27	=27	=27	=27	=27
4FF	.	1r	.	8A	-tor,	8c	-tor,	1r	.	1r	.
.	.	.	.	8f	<il	8d	<il	.	.	.	.
4C	-	.	.	8e-X	tra-	8c	tra-	.	.	.	.
.	.	.	.	8d	-di-	8B-y	-di-	.	.	.	.
4F	.	.	.	4c	-tor,>	4A	-tor>,	.	.	.	.
4G	.	.	.	8r	.	8r	.	.	.	.	.
.	.	.	.	8B-y	<il	8d	il	.	.	.	.
=28	=28	=28	=28	=28	=28	=28	=28	=28	=28	=28	=28
2C	-	1r	.	8c	tra-	8e-X	tra-	1r	.	1r	.
.	.	.	.	8B-y	-di-	8d	-di-	.	.	.	.
.	.	.	.	8A	-tor>	8c	-tor	.	.	.	.
.	.	.	.	8G	mi	8B-y	mi	.	.	.	.
2D	#	.	.	4G	por-	2A	por-	.	.	.	.
.	.	.	.	4F#X	.	.	.	.	.	.	.
=29	=29	=29	=29	=29	=29	=29	=29	=29	=29	=29	=29
2GG	.	1r	.	2G	-se?	2G	-se?	1r	.	4r	.
.	.	.	.	.	.	.	.	.	.	4g	Et
2AA	.	.	.	2r	.	2r	.	.	.	2cc	io,
=30	=30	=30	=30	=30	=30	=30	=30	=30	=30	=30	=30
2D	.	1r	.	1r	.	1r	.	1r	.	4r	.
.	.	.	.	.	.	.	.	.	.	4a	<Et
2BB-y	.	.	.	.	.	.	.	.	.	2dd	io>
=31	=31	=31	=31	=31	=31	=31	=31	=31	=31	=31	=31
4E-X	.	1r	.	1r	.	1r	.	1r	.	8r	.
.	.	.	.	.	.	.	.	.	.	8b-y	pur
4F	.	.	.	.	.	.	.	.	.	8b-y	an-
.	.	.	.	.	.	.	.	.	.	8a	-co
[2BB-y	.	.	.	.	.	.	.	.	.	4b-y	l’a-
.	.	.	.	.	.	.	.	.	.	4b-y	-mo,
=32	=32	=32	=32	=32	=32	=32	=32	=32	=32	=32	=32
4BB-]	.	1r	.	1r	.	1r	.	1r	.	8r	.
.	.	.	.	.	.	.	.	.	.	8dd	e in
4C	.	.	.	.	.	.	.	.	.	8cc	que-
.	.	.	.	.	.	.	.	.	.	8b-y	-sto
2D	.	.	.	.	.	.	.	.	.	4a	li-
.	.	.	.	.	.	.	.	.	.	4a	-do,
=33	=33	=33	=33	=33	=33	=33	=33	=33	=33	=33	=33
4AA	.	1r	.	1r	.	1r	.	1r	.	8r	.
.	.	.	.	.	.	.	.	.	.	8cc	<e in
4BB-y	.	.	.	.	.	.	.	.	.	8b-y	que-
.	.	.	.	.	.	.	.	.	.	8a	-sto
4C	.	.	.	.	.	.	.	.	.	4g	li-
4GG	.	.	.	.	.	.	.	.	.	8g	-do>
.	.	.	.	.	.	.	.	.	.	8b-y	In-
=34	=34	=34	=34	=34	=34	=34	=34	=34	=34	=34	=34
2GG	.	1r	.	1r	.	1r	.	1r	.	8b-y	-ven-
.	.	.	.	.	.	.	.	.	.	8b-y	-di-
.	.	.	.	.	.	.	.	.	.	8a	-ca-
.	.	.	.	.	.	.	.	.	.	8g	-ta an-
2D	.	.	.	.	.	.	.	.	.	2a	-cor
=35	=35	=35	=35	=35	=35	=35	=35	=35	=35	=35	=35
1D	.	1r	.	1r	.	1r	.	1r	.	2r	.
.	.	.	.	.	.	.	.	.	.	[2f	pian-
=36	=36	=36	=36	=36	=36	=36	=36	=36	=36	=36	=36
1BB-y	.	1r	.	1r	.	1r	.	1r	.	2f]	.
.	.	.	.	.	.	.	.	.	.	4e	-go e
.	.	.	.	.	.	.	.	.	.	4d	m’as-
=37	=37	=37	=37	=37	=37	=37	=37	=37	=37	=37	=37
1AA	.	1r	.	1r	.	1r	.	1r	.	1e	-si-
=38	=38	=38	=38	=38	=38	=38	=38	=38	=38	=38	=38
8DL	.	8r	.	1r	.	8r	.	2r	.	2d	-do,
8B-yJ	.	8B-y	e in	.	.	8d	e in	.	.	.	.
8AL	.	8A	que-	.	.	8c	que-	.	.	.	.
8GJ	.	8G	-sto	.	.	8B-y	-sto	.	.	.	.
4F	.	4F	li-	.	.	4A	li-	8r	.	2r	.
.	.	.	.	.	.	.	.	8f	e in	.	.
4F	.	8F	-do	.	.	8A	-do	8e-X	que-	.	.
.	.	8F	In-	.	.	8A	In-	8d	-sto	.	.
=39	=39	=39	=39	=39	=39	=39	=39	=39	=39	=39	=39
4F	.	8F	-ven-	2r	.	8A	-ven-	4c	li-	1r	.
.	.	8F	-di-	.	.	8A	-di-	.	.	.	.
8E-XL	.	8E-X	-ca-	.	.	8G	-ca-	8c	-do	.	.
8DJ	.	8D	-ta an-	.	.	8F	-ta an-	8d	In-	.	.
2C	-	2C	-cor	8r	.	2G	-cor,	8e-X	-ven-	.	.
.	.	.	.	8c	e in	.	.	8e-i	-di-	.	.
.	.	.	.	8B-y	que-	.	.	8d	-ca-	.	.
.	.	.	.	8A	-sto	.	.	8c	-ta an-	.	.
=40	=40	=40	=40	=40	=40	=40	=40	=40	=40	=40	=40
2GG	.	1r	.	4G	li-	2r	.	2B-y	-cor,	8r	.
.	.	.	.	.	.	.	.	.	.	8g	e in
.	.	.	.	8G	-do	.	.	.	.	8f	que-
.	.	.	.	8A	In-	.	.	.	.	8e-i	-sto
2GG	.	.	.	8B-y	-ven-	8r	.	2r	.	4d	li-
.	.	.	.	8B-y	-di-	8d	e in	.	.	.	.
.	.	.	.	8A	-ca-	8c	que-	.	.	4d	-do,
.	.	.	.	8G	-ta an-	8B-y	-sto	.	.	.	.
=41	=41	=41	=41	=41	=41	=41	=41	=41	=41	=41	=41
2D	.	4r	.	2F	-cor	8A	li-	2r	.	8r	.
.	.	.	.	.	.	8B-y	-do In-	.	.	8dd	<e in
.	.	2D	pian-	.	.	8A	-ven-	.	.	8cc	que-
.	.	.	.	.	.	8G	-di-	.	.	8b-y	-sto
[2D	.	.	.	2r	.	4F	-ca-	4r	.	4a	li-
.	.	[4D	-go e	.	.	4D	-ta an-	8r	.	8a	-do>,
.	.	.	.	.	.	.	.	8f	In-	8a	In-
=42	=42	=42	=42	=42	=42	=42	=42	=42	=42	=42	=42
4D]	.	4D]	.	1r	.	2A	-cor,	8f	-ven-	8a	-ven-
.	.	.	.	.	.	.	.	8f	-di-	8a	-di-
4D	.	4D	m’as-	.	.	.	.	8e	-ca-	8g	-ca-
.	.	.	.	.	.	.	.	8d	-ta an-	8f	-ta an-
2C	.	2C	-si-	.	.	2r	.	2e	-cor	2g	-cor
=43	=43	=43	=43	=43	=43	=43	=43	=43	=43	=43	=43
1FF	.	2FF	-do,	1r	.	4r	.	1r	.	4r	.
.	.	.	.	.	.	4A	pian-	.	.	2cc	pian-
.	.	2r	.	.	.	4A	-go e	.	.	.	.
.	.	.	.	.	.	4A	m’as-	.	.	4a	-go,
=44	=44	=44	=44	=44	=44	=44	=44	=44	=44	=44	=44
1GG	.	1r	.	1r	.	2G	-si-	4r	.	4r	.
.	.	.	.	.	.	.	.	4d	pian-	2dd	<pian-
.	.	.	.	.	.	2G	-do,	4d	-go e	.	.
.	.	.	.	.	.	.	.	4d	m’as-	4bnX	-go,>
=45	=45	=45	=45	=45	=45	=45	=45	=45	=45	=45	=45
2C	.	1r	.	1r	.	1r	.	2c	-si-	4r	.
.	.	.	.	.	.	.	.	.	.	2cc	<pian-
2FF	.	.	.	.	.	.	.	2c	-do,	.	.
.	.	.	.	.	.	.	.	.	.	8.f	-go> e
.	.	.	.	.	.	.	.	.	.	16e	m’as-
=46	=46	=46	=46	=46	=46	=46	=46	=46	=46	=46	=46
2AA	.	1r	.	1r	.	1r	.	2r	.	2e	-si-
8DL	.	.	.	.	.	.	.	8r	.	8d	-do,
8GJ	.	.	.	.	.	.	.	8g	e in	8b-y	e in
8FL	.	.	.	.	.	.	.	8f	que-	8a	que-
8E-XJ	.	.	.	.	.	.	.	8e-X	-sto	8g	-sto
=47	=47	=47	=47	=47	=47	=47	=47	=47	=47	=47	=47
8DL	.	8r	.	1r	.	8r	.	4d	li-	4f	li-
8B-yJ	.	8B-y	e in	.	.	8d	e in	.	.	.	.
8AL	.	8A	que-	.	.	8c	que-	4d	-do,	4f	-do,
8GJ	.	8G	-sto	.	.	8B-y	-sto	.	.	.	.
4F	.	4F	li-	.	.	4A	li-	8r	.	4r	.
.	.	.	.	.	.	.	.	8f	<e in	.	.
4F	.	8F	-do	.	.	8A	-do	8e-X	que-	8r	.
.	.	8F	In-	.	.	8A	In-	8d	-sto	8f	In-
=48	=48	=48	=48	=48	=48	=48	=48	=48	=48	=48	=48
4F	.	8F	-ven-	2r	.	8A	-ven-	4c	li-	8a	-ven-
.	.	8F	-di-	.	.	8A	-di-	.	.	8a	-di-
8E-XL	.	8E-X	-ca-	.	.	8G	-ca-	8c	-do>	8a	-ca-
8DJ	.	8D	-ta an-	.	.	8F	-ta an-	8d	In-	8b-y	-ta an-
2C	-	2C	-cor	8r	.	2G	-cor,	8e-X	-ven-	2cc	-cor,
.	.	.	.	8c	e in	.	.	8e-i	-di-	.	.
.	.	.	.	8B-y	que-	.	.	8d	-ca-	.	.
.	.	.	.	8A	-sto	.	.	8c	-ta an-	.	.
=49	=49	=49	=49	=49	=49	=49	=49	=49	=49	=49	=49
1E-X	6	1E-X	pian-	4G	li-	8r	.	2g	-cor,	8r	.
.	.	.	.	.	.	8e-X	e in	.	.	8cc	e in
.	.	.	.	8G	-do	8d	que-	.	.	8b-y	que-
.	.	.	.	8B-y	In-	8c	-sto	.	.	8a	-sto
.	.	.	.	8B-y	-ven-	4B-y	li-	2r	.	4g	li-
.	.	.	.	8B-y	-di-	.	.	.	.	.	.
.	.	.	.	8A	-ca-	8c	-do	.	.	4g	-do
.	.	.	.	8G	-ta an-	8c	In-	.	.	.	.
=50	=50	=50	=50	=50	=50	=50	=50	=50	=50	=50	=50
1D	.	1D	-go e	2A	-cor	8d	-ven-	4r	.	4r	.
.	.	.	.	.	.	8A	-di-	.	.	.	.
.	.	.	.	.	.	8A	-ca-	8r	.	8r	.
.	.	.	.	.	.	8F	-ta an-	8f	In-	8a	In-
.	.	.	.	2r	.	2A	-cor,	8f	-ven-	8a	-ven-
.	.	.	.	.	.	.	.	8f	-di-	8a	-di-
.	.	.	.	.	.	.	.	8e-X	-ca-	8g	-ca-
.	.	.	.	.	.	.	.	8d	-ta an-	8f	-ta an-
=51	=51	=51	=51	=51	=51	=51	=51	=51	=51	=51	=51
1C	-	1C	m’as-	4r	.	8r	.	4e-X	-cor	2g	-cor
.	.	.	.	.	.	8c	In-	.	.	.	.
.	.	.	.	4G	pian-	8c	-ven-	4e-i	pian-	.	.
.	.	.	.	.	.	8c	-di-	.	.	.	.
.	.	.	.	4.G	-go e	8B-y	-ca-	4e-i	-go e	4r	.
.	.	.	.	.	.	8A	-ta an-	.	.	.	.
.	.	.	.	.	.	4G	-cor	4e-i	m’as-	4cc	pian-
.	.	.	.	8c	m’as-	.	.	.	.	.	.
=52	=52	=52	=52	=52	=52	=52	=52	=52	=52	=52	=52
1D	#	1D	-si-	4A	-si-	4d	pian-	1d	-si-	4f#X	-go e
.	.	.	.	2G	.	8B-y	-go e	.	.	4g	m’as-
.	.	.	.	.	.	8B-y	m’as-	.	.	.	.
.	.	.	.	.	.	2A	-si-	.	.	2a	-si-
.	.	.	.	4F#X	.	.	.	.	.	.	.
=53	=53	=53	=53	=53	=53	=53	=53	=53	=53	=53	=53
1GG;l	.	1GG;l	-do?	1G;l	-do?	1BnX;l	-do?	1d;l	-do?	1g;l	-do?
==	==	==	==	==	==	==	==	==	==	==	==
*-	*-	*-	*-	*-	*-	*-	*-	*-	*-	*-	*-
!!!system-decoration: [(s1)(s2)(s3)(s4)(s5)]s6
!!!RDF**kern: i = editorial accidental
!!!RDF**kern: l = terminal long
!!!ENC: Emiliano Ricciardi
!!!END: 2019
!!!EED: Mazzetti, Marcello; Ticli, Livio
!!!EEV: 2019/06/12
!!!YEC: Copyright 2018 Emiliano Ricciardi, All Rights Reserved
!!!ONB: Translated from MusicXML on 2019/06/12
!!@@BEGIN:	VERSEDATA
!!@CATALOGNUM:	Tsg16063
!!@LAST_MODIFIED: 2020/07/12
!!@TITLE:		Poi ch'ella in sé tornò, deserto e muto
!!@CANTO:		XVI
!!@OTTAVA:	63
!!@MANUSRC:	G-Al, G-Au, G-Br<sub>1</sub>, G-Br<sub>2</sub>, G-Cv, G-Es<sub>1</sub>, G-Es<sub>2</sub>, G-Es<sub>3</sub>, G-F, G-Fr, G-Fr<sub>1</sub>, G-Fr<sub>2</sub>, G-Mc<sub>1</sub>, G-Mg, G-Mr, G-Mt, G-N, G-Ol
!!@PRINTSRC:	G-1580CM, G-1581B, G-1581CV, G-1581R, G-1581MR, G-1581P, G-1581V, G-1581V<sub>bis</sub>, G-1582C, G-1582M, G-1582MC, G-1582P, G-1582SC, G-1582SC<sub>bis</sub>, G-1583S, G-1584O, G-1584S, G-1585C, G-1585S, G-1588S, G-1589S, G-1590B, G-1590S, G-1592S, G-1593S, G-1594C, G-1595C, G-1597C, G-1598C, G-1599C, G-1600C, G-1600S, G-1601C, G-1601R, G-1602C, G-1604C, G-1604Cl, G-1604F, G-1604P, G-1606B, G-1606B<sub>bis</sub>, G-1606L, G-1607ZR, G-1608DP, G-1609GC, G-1610M, G-1611S, G-1611V, G-1612P, G-1613M, G-1613P, G-1613V, G-1615P, G-1616M, G-1617P, G-1619B, G-1619V, G-1620M, G-1620S, G-1621R, G-1624I, G-1624MT, G-1625C, G-1625S, G-1625SS, G-1626C, G-1626Co, G-1627M, G-1628T, G-1628Tu, G-1630L, G-1630T, G-1632FT, G-1639CF, G-1642M, G-1643I, G-1644P, G-1644S
!!@@BEGIN:	VERSES
!!@ABOUTIT:
!!@ABOUTEN:
!!@EDITOR:	Angelo Solerti
!!@EDITION_TITLE: Gerusalemme liberata. Poema eroico di Torquato Tasso. Edizione critica sui manoscritti e le prime stampe.
!!@EDITION_LOC:	Florence
!!@EDITION_PUB:	G. Barbera
!!@EDITION_DATE:  1895
!!@EDITION_VOL:
!!@EDITION_PAGE:
!!@TRANSLATOR:	Emiliano Ricciardi and Amyrose McCue Gill
!!@VERSE:
!!	Poi ch’ella in se tornò, deserto e muto,
!!	Quanto mirar potè, d’intorno scorse.
!!	"Ito se n’è pur," disse, "ed ha potuto
!!	Me quì lasciar della mia vita in forse?
!!	Né un momento indugiò: né un breve aiuto
!!	Nel caso estremo il traditor mi porse?
!!	Ed io pur anco l’amo? e in questo lido
!!	Invendicata ancor piango, e m’assido?"
!!@TVERSE:
!!	Then when she returned to her senses, abandoned and silent,
!!	To look about as much as she could, she glanced about.
!!	"He’s actually gone away," she said, "and was able
!!	To leave me here with my life in doubt?
!!	Not a moment did he hesitate; nor a small aid
!!	In extreme need did the traitor lend me?
!!	And yet still I love him? And upon this shore
!!	Unrevenged still I weep, and I freeze?"
!!@@END:		VERSES
!!@OTHER_CRIT_ED:  Torquato Tasso, <i>Gerusalemme liberata</i>, ed. Lanfranco Caretti, 2 vols. (Bari: Laterza, 1967).
!!@ATTRIBUTION_ABOUT:
!!@DATING:	mid-1560s through 1570s
!!@DEDICATEE:	Duke Alfonso II d'Este
!!@COMMENTARY:
!!@@END:		VERSEDATA
!!@@BEGIN: SETTING
!!@CATALOGNUM:	Tsg16063c
!!@CANTO:		XVI
!!@OTTAVA:	63
!!@TITLE:	Poi ch'ella in sé tornò, deserto e muto
!!@COMPOSER:	Eredi, Francesco
!!@PARTS:		6 of 9
!!@PRINCEPSTITLE:	L'Armida del Tasso posta in musica a cinque voci, col suo basso per suonare
!!@PRINCEPSLOC:	Venice
!!@NORMLOC:	Venice
!!@NORMPUB:	Alessandro Vincenti
!!@NORMPUBSHORT:	A. Vincenti
!!@PRINCEPSPUB:	Alessandro Vincenti
!!@PRINCEPSYEAR:	1629
!!@PRINCEPSRISM:	E 741
!!@OVOICES:	5+bc
!!@EXTANTVOICES:	5+bc
!!@OMENSURATION:	C
!!@OCLEFS:	C1,C3,C4,C4,F4,F4
!!@OTIME:		
!!@OKEYSIG:	b-
!!@FINAL:		(G)G
!!@TIMPEDITOR:	Mazzetti, Marcello; Ticli, Livio
!!@REPRINTS:	
!!@@END: SETTING
